X:1
T:Title
L:1/8
Q:1/4=100
M:4/4
K:D
V:1 treble nm="Church Organ, Staff"
V:1
 d2 c2 A2 B2 | F2 G2 A2 F2 | d2 c2 A2 B2 | F2 A2 G2 F2 | E2 D2 A2 ^G2 | c2 B2 A2 ^G2 | %6
w: By~W.~J.~Westbrook * * *||||||
 B2 e2 c2 B2 | ^G2 A4 B2- | B2 c6 | d2 c2 B2 A2 | f2 e2 d2 c2 | d2 c2 A2 B2 | F2 A4 G2- | G2 F6 |] %14
w: ||||||||

